X:1
T:Lookit' Over Yonder
M:3/4
L:1/8
K:D
 D| DG G3 A| FG A3 F| GA A3 F| G2 E3 E| FA A3 F| GB B3 A| Ad d2 F2|\
 E2 D3 A| FA A3 F| GB B3 G| F3/2 A/2 A3 F| G2 E3 F| FA A3 F| GB B3 B|\
 Ad d3 f| E2 D3||
